src/icons/svg/tasks.svg

<?xml version="1.0" encoding="UTF-8"?>
<svg width="40px" height="40px" viewBox="0 0 40 40" version="1.1" xmlns="http://www.w3.org/2000/svg"
>
    <path d="M34.285,0 L5.71499998,0 C2.55870967,0 0,2.55870967 0,5.71499998 L0,34.285 C0,37.4412903 2.55870967,40 5.71499998,40 L34.285,40 C37.4412903,40 40,37.4412903 40,34.285 L40,5.71499998 C40,2.55870967 37.4412903,0 34.285,0 Z M37.1451637,34.2927419 C37.1457631,35.0501061 36.8449028,35.7765669 36.3090023,36.3117411 C35.7731018,36.8469153 35.0462336,37.1467902 34.288871,37.1451679 L5.72161289,37.1451679 C4.95758064,37.1451679 4.23612899,36.8516129 3.69580647,36.3112903 C3.15548396,35.7709677 2.85483871,35.0567742 2.85483871,34.2927419 L2.85483871,5.71774194 C2.85768452,4.13627322 4.14014176,2.85554766 5.72161289,2.85483871 L34.288871,2.85483871 C35.0473163,2.8556082 35.7743801,3.15769285 36.3100617,3.69461468 C36.8457433,4.23153651 37.1461458,4.9592969 37.1451637,5.71774194 L37.1451637,34.2927419 Z"
          id="形状"></path>
    <path d="M32.5067742,12.8548387 L21.0767742,12.8548387 C20.2884323,12.8548387 19.6493548,13.4939161 19.6493548,14.2822581 C19.6493548,15.0706 20.2884323,15.7096774 21.0767742,15.7096774 L32.5067742,15.7096774 C33.2951162,15.7096774 33.9341936,15.0706 33.9341936,14.2822581 C33.9341936,13.4939161 33.2951162,12.8548387 32.5067742,12.8548387 L32.5067742,12.8548387 Z M32.5067742,24.2903226 L21.0767742,24.2903226 C20.2884323,24.2903226 19.6493548,24.9294 19.6493548,25.7177419 C19.6493548,26.5060839 20.2884323,27.1451613 21.0767742,27.1451613 L32.5067742,27.1451613 C33.2951162,27.1451613 33.9341936,26.5060839 33.9341936,25.7177419 C33.9341936,24.9294 33.2951162,24.2903226 32.5067742,24.2903226 Z M12.5043548,20.7195161 C9.74258066,20.7195161 7.50435485,22.9583871 7.50435485,25.7195161 C7.50435485,28.4806451 9.74322583,30.7195161 12.5043548,30.7195161 C15.2654839,30.7195161 17.5043548,28.4806452 17.5043548,25.7195161 C17.5043548,22.9583871 15.266129,20.7195161 12.5043548,20.7195161 Z M14.0216129,27.2374194 C13.297658,27.9606789 12.1636306,28.0718675 11.3129851,27.5029937 C10.4623396,26.9341199 10.1319604,25.8436013 10.5238735,24.8982869 C10.9157865,23.9529725 11.9208534,23.4161096 12.9244786,23.6159884 C13.9281039,23.8158671 14.650802,24.696826 14.650652,25.7201613 C14.6520838,26.2896869 14.4255699,26.8361081 14.0216129,27.2375807 L14.0216129,27.2374194 Z M15.7812903,10.4233871 L11.0754839,15.1290323 L9.22741936,13.2808065 C8.66996809,12.7233552 7.76616098,12.7233552 7.20870969,13.2808065 C6.6512584,13.8382577 6.65125839,14.7420648 7.20870967,15.2995161 L10.066129,18.1570968 C10.3338235,18.4248002 10.6969004,18.5751952 11.0754839,18.5751952 C11.4540673,18.5751952 11.8171443,18.4248002 12.0848387,18.1570968 L17.7998387,12.4420968 C18.350833,11.8835948 18.347811,10.9850972 17.7930723,10.4303142 C17.2383336,9.87553124 16.3398363,9.87243747 15.7812903,10.4233871 L15.7812903,10.4233871 Z"
          id="形状"></path>
</svg>

<svg width="40" height="40" xmlns="http://www.w3.org/2000/svg"><path d="M34.285 0H5.715A5.715 5.715 0 0 0 0 5.715v28.57A5.715 5.715 0 0 0 5.715 40h28.57A5.715 5.715 0 0 0 40 34.285V5.715A5.715 5.715 0 0 0 34.285 0zm2.86 34.293a2.85 2.85 0 0 1-2.856 2.852H5.722a2.845 2.845 0 0 1-2.026-.834 2.835 2.835 0 0 1-.841-2.018V5.718a2.868 2.868 0 0 1 2.867-2.863h28.567a2.86 2.86 0 0 1 2.856 2.863v28.575z"/><path d="M32.507 12.855h-11.43a1.427 1.427 0 0 0 0 2.855h11.43a1.427 1.427 0 1 0 0-2.855zm0 11.435h-11.43a1.427 1.427 0 1 0 0 2.855h11.43a1.427 1.427 0 1 0 0-2.855zm-20.003-3.57a5 5 0 1 0 0 10 5 5 0 0 0 0-10zm1.518 6.517a2.145 2.145 0 1 1-3.033-3.035 2.145 2.145 0 0 1 3.033 3.036zm1.76-16.814l-4.707 4.706-1.848-1.848A1.427 1.427 0 0 0 7.21 15.3l2.857 2.857a1.427 1.427 0 0 0 2.019 0l5.715-5.715a1.427 1.427 0 0 0-2.019-2.019z"/></svg>
